X:1
T:Ave Maria
T:Prelude in C Major
T:J. S. Bach
T:"The Well-Tempered Clavier" (1722)
T:1722
T:1722
T:1722
C:Bach/Gounod
Z:1722
%%score { ( 1 3 4 ) | ( 2 5 ) }
L:1/8
Q:1/4=68
M:4/4
K:C
V:1 treble nm="Piano" snm="Pno."
V:3 treble 
V:4 treble 
V:2 bass 
V:5 bass 
V:1
!ped! z G/c/ e/G/c/e/ z G/c/ e/G/c/e/!ped-up! |!ped! z A/d/ f/A/d/f/ z A/d/ f/A/d/f/!ped-up! | %2
!ped! z G/d/ f/G/d/f/ z G/d/ f/G/d/f/!ped-up! |!ped! z G/c/ e/G/c/e/ z G/c/ e/G/c/e/!ped-up! | %4
!ped! z A/e/ a/A/e/a/ z A/e/ a/A/e/a/!ped-up! |!ped! z ^F/A/ d/F/A/d/ z F/A/ d/F/A/d/!ped-up! | %6
!ped! z G/d/ g/G/d/g/ z G/d/ g/G/d/g/!ped-up! |!ped! z E/G/ c/E/G/c/ z E/G/ c/E/G/c/!ped-up! | %8
!ped! z E/G/ c/E/G/c/ z E/G/ c/E/G/c/!ped-up! |!ped! z D/^F/ c/D/F/c/ z D/F/ c/D/F/c/!ped-up! | %10
!ped! z D/G/ B/D/G/B/ z D/G/ B/D/G/B/!ped-up! |!ped! z E/G/ ^c/E/G/c/ z E/G/ c/E/G/c/!ped-up! | %12
!ped! z D/A/ d/D/A/d/ z D/A/ d/D/A/d/!ped-up! |!ped! z D/F/ B/D/F/B/ z D/F/ B/D/F/B/!ped-up! | %14
!ped! z C/G/ c/C/G/c/ z C/G/ c/C/G/c/!ped-up! |!ped! z A,/C/ F/A,/C/F/ z A,/C/ F/A,/C/F/!ped-up! | %16
!ped! z A,/C/ F/A,/C/F/ z A,/C/ F/A,/C/F/!ped-up! | %17
!ped! z G,/B,/ F/G,/B,/F/ z G,/B,/ F/G,/B,/F/!ped-up! | %18
!ped! z G,/C/ E/G,/C/E/ z G,/C/ E/G,/C/E/!ped-up! | %19
!ped! z _B,/C/ E/B,/C/E/ z B,/C/ E/B,/C/E/!ped-up! | %20
!ped! z A,/C/ E/A,/C/E/ z A,/C/ E/A,/C/E/!ped-up! | %21
!ped! z A,/C/ _E/A,/C/E/ z A,/C/ E/A,/C/E/!ped-up! | %22
!ped! z B,/C/ D/B,/C/D/ z B,/C/ D/B,/C/D/!ped-up! | %23
!ped! z G,/B,/ D/G,/B,/D/ z G,/B,/ D/G,/B,/D/!ped-up! | %24
!ped! z G,/C/ E/G,/C/E/ z G,/C/ E/G,/C/E/!ped-up! | %25
!ped! z G,/C/ F/G,/C/F/ z G,/C/ F/G,/C/F/!ped-up! | %26
!ped! z G,/B,/ F/G,/B,/F/ z G,/B,/ F/G,/B,/F/!ped-up! | %27
!ped! z A,/C/ ^F/A,/C/F/ z A,/C/ F/A,/C/F/!ped-up! | %28
!ped! z G,/C/ G/G,/C/G/ z G,/C/ G/G,/C/G/!ped-up! | %29
!ped! z G,/C/ F/G,/C/F/ z G,/C/ F/G,/C/F/!ped-up! | %30
!ped! z G,/B,/ F/G,/B,/F/ z G,/B,/ F/G,/B,/F/!ped-up! | %31
!ped! z G,/_B,/ E/G,/B,/E/ z G,/B,/ E/G,/B,/E/!ped-up! | %32
!ped! z F,/A,/ C/F/C/A,/ C/A,/F,/A,/ F,/D,/F,/D,/!ped-up! | %33
!ped! z G/B/ d/f/d/B/[Q:1/4=63] d/B/G/B/[Q:1/4=58] D/F/[Q:1/4=53]E/D/!ped-up! | %34
[Q:1/4=120]!ped! z[Q:1/4=45] c7!ped-up! |] %35
V:2
 C/E/ z z2 C/E/ z z2 | C/D/ z z2 C/D/ z z2 | B,/D/ z z2 B,/D/ z z2 | C/E/ z z2 C/E/ z z2 | %4
 C/E/ z z2 C/E/ z z2 | C/D/ z z2 C/D/ z z2 | B,/D/ z z2 B,/D/ z z2 | B,/C/ z z2 B,/C/ z z2 | %8
 A,/C/ z z2 A,/C/ z z2 | D,/A,/ z z2 D,/A,/ z z2 | G,/B,/ z z2 G,/B,/ z z2 | %11
 G,/_B,/ z z2 G,/B,/ z z2 | F,/A,/ z z2 F,/A,/ z z2 | F,/_A,/ z z2 F,/A,/ z z2 | %14
 E,/G,/ z z2 E,/G,/ z z2 | E,/F,/ z z2 E,/F,/ z z2 | D,/F,/ z z2 D,/F,/ z z2 | %17
 G,,/D,/ z z2 G,,/D,/ z z2 | C,/E,/ z z2 C,/E,/ z z2 | C,/G,/ z z2 C,/G,/ z z2 | %20
 F,,/F,/ z z2 F,,/F,/ z z2 | ^F,,/C,/ z z2 F,,/C,/ z z2 | ^G,,/F,/ z z2 G,,/F,/ z z2 | %23
 =G,,/F,/ z z2 G,,/F,/ z z2 | G,,/E,/ z z2 G,,/E,/ z z2 | G,,/D,/ z z2 G,,/D,/ z z2 | %26
 G,,/D,/ z z2 G,,/D,/ z z2 | G,,/_E,/ z z2 G,,/E,/ z z2 | G,,/=E,/ z z2 G,,/E,/ z z2 | %29
 G,,/D,/ z z2 G,,/D,/ z z2 | G,,/D,/ z z2 G,,/D,/ z z2 | C,,/C,/ z z2 C,,/C,/ z z2 | %32
 C,,/C,/ z z2 z4 | C,,/B,,/ z z2 z4 | z/4 C,7/4- C,6 |] %35
V:3
 x8 | x8 | x8 | x8 | x8 | x8 | x8 | x8 | x8 | x8 | x8 | x8 | x8 | x8 | x8 | x8 | x8 | x8 | x8 | %19
 x8 | x8 | x8 | x8 | x8 | x8 | x8 | x8 | x8 | x8 | x8 | x8 | x8 | x8 | x8 | z/ z/4 G/4- G7 |] %35
V:4
 x8 | x8 | x8 | x8 | x8 | x8 | x8 | x8 | x8 | x8 | x8 | x8 | x8 | x8 | x8 | x8 | x8 | x8 | x8 | %19
 x8 | x8 | x8 | x8 | x8 | x8 | x8 | x8 | x8 | x8 | x8 | x8 | x8 | x8 | x8 | x/ E/- E7 |] %35
V:5
 x8 | x8 | x8 | x8 | x8 | x8 | x8 | x8 | x8 | x8 | x8 | x8 | x8 | x8 | x8 | x8 | x8 | x8 | x8 | %19
 x8 | x8 | x8 | x8 | x8 | x8 | x8 | x8 | x8 | x8 | x8 | x8 | x8 | x8 | x8 | C,,8 |] %35

